X:68
T:Sunny Meadow, The
R:jig
C:Tiennet Simonnin
M:6/8
L:1/8
K:Edor
EAB ~G3|EGB edB|Adc ~e3|fed BAF|
EAB ~G3|EGB edB|cgf ~a3|1 gfd BAF:|2 gfd ABd||
K:Em
ece baf|~g3 g2f|ecB A2G|ABc egf|
dAd age|~f3 f2e|dAG F2E|1 FGA def:|2 FAd BAF||
